communes/3789.svg

<?xml version="1.0" encoding="UTF-8"?>
<!DOCTYPE svg  PUBLIC '-//W3C//DTD SVG 1.1//EN'  'http://www.w3.org/Graphics/SVG/1.1/DTD/svg11.dtd'>
<svg width="438" height="480" viewBox="21 15 438 480" xmlns="http://www.w3.org/2000/svg">
<metadata>
<rdf:RDF xmlns:dc="http://purl.org/dc/elements/1.1/" xmlns:rdf="http://www.w3.org/1999/02/22-rdf-syntax-ns#">
<rdf:Description dc:date="2006-11-01" dc:format="image/svg+xml" dc:language="de" dc:title="Wappen Sils im Engadin/Segl (CH-GR)">
<dc:creator rdf:resource="http://de.wikipedia.org/wiki/Benutzer:Bernina"/>
</rdf:Description>
</rdf:RDF>
</metadata>
<title>Wappen Sils im Engadin/Segl (CH-GR)</title>
<defs>
<clipPath id="a">
<path d="m360 4140a3240 3240 0 0 0 6480 0v-3870h-6480v3870z"/>
</clipPath>
<style type="text/css"><![CDATA[
  .Rand2 { stroke: #202020; stroke-width:30; }
  .Rand3 { stroke: #202020; stroke-width:45; }
  .Rand6 { stroke: #202020; stroke-width:90; }
  .Rand2Hell { stroke: #ffffff; stroke-width:30; }
  .Rand4Hell { stroke: #ffffff; stroke-width:60; }
  .Schwarz { fill: #000000; }
  .Blau { fill: #0000ff; }
  .Rot { fill: #ff0000; }
  .Gold { fill: #ffef00; }
  .Silber { fill: #ffffff; }
  ]]></style>
</defs>
<g transform="scale(.066667)" fill="none" fill-rule="evenodd" stroke-miterlimit="10" stroke-width="10">
<g clip-path="url(#a)">
<path class="Blau" d="m-225-225v4095h7650v-4095h-7650z"/>
<path class="Gold" d="m-225 3870v3555h7650v-3555h-7650z"/>
<path class="Gold Rand2" d="m3460 1082-302-664 70 726-20 8-464-562 258 682-18 14-594-426 426 594-14 18-682-256 562 462-8 20-726-70 664 302-2 20-720 120 720 120 2 20-664 302 726-70 8 20-562 464 682-258 14 18-426 594 594-426 18 14-256 682 462-562 20 8-70 726 302-664 20 2 120 720 120-720 20-2 302 664-70-726 20-8 464 562-258-682 18-14 594 426-426-594 14-18 682 256-562-462 8-20 726 70-664-302 2-20 720-120-720-120-2-20 664-302-726 70-8-20 562-464-682 258-14-18 426-594-594 426-18-14 258-682-464 562-20-8 70-726-302 664-20-2-120-720-120 720-20 2z"/>
<path class="Rand4Hell" d="m4470 2070a870 870 0 0 0-1740 0 870 870 0 0 0 1740 0z"/>
<path class="Blau Rand2" d="m2060 5824c153.33 68.67 306.67 137.33 458.33 216.67 151.67 79.33 301.67 169.33 451.67 259.33 0-60 0-120 15-180s45-120 75-180"/>
<path class="Blau Rand2" d="m3854 5908c125.33 40.67 250.67 81.33 373.33 116.67 122.67 35.33 242.67 65.33 362.67 95.33-9.33-66-18.67-132-18.67-192s9.34-114 18.67-168"/>
<path class="Blau Rand2" d="m3870 4950c150-60 300-120 435-165s255-75 375-105c-30 60-60 120-75 180s-15 120-15 180"/>
<path class="Blau Rand2" d="m2250 4950c90-60 180-120 315-195s315-165 495-255c-12 86.67-24 173.33-24 248.33s12 138.34 24 201.67"/>
<path class="Blau Rand2" d="m5130 5670c210 30 420 60 570 90s240 60 330 90c-30-120-60-240-75-330s-15-150 15-255 90-255 150-405c-180 60-360 120-525 165s-315 75-465 105"/>
<path class="Blau Rand2" d="m1080 5400c-30 30-60 60 75 135s435 195 825 285 870 150 1335 135 915-105 1290-180 675-135 825-225 150-210 0-300-450-150-825-225-825-165-1320-180-1035 45-1410 135-585 210-690 285-105 105-105 135z"/>
<path class="Rand2" d="m1080 5400 360 90h180"/>
<path class="Rand2" d="m1980 5760c60-60 120-120 150-210s30-210 0-315-90-195-150-285"/>
<path class="Silber Rand2" d="m1918 5254a120 120 0 0 0-240 0 120 120 0 0 0 240 0z"/>
<path class="Schwarz" d="m1836 5248a60 60 0 0 0-120 0 60 60 0 0 0 120 0z"/>
<path class="Rot Rand2Hell" d="m3148 5458a90 90 0 0 0-180 0 90 90 0 0 0 180 0z"/>
<path class="Rot Rand2Hell" d="m3914 5472a90 90 0 0 0-180 0 90 90 0 0 0 180 0z"/>
<path class="Rot Rand2Hell" d="m4694 5428a90 90 0 0 0-180 0 90 90 0 0 0 180 0z"/>
<path class="Rot Rand2Hell" d="m4304 5300a90 90 0 0 0-180 0 90 90 0 0 0 180 0z"/>
<path class="Rot Rand2Hell" d="m3524 5248a90 90 0 0 0-180 0 90 90 0 0 0 180 0z"/>
<path class="Rot Rand2Hell" d="m2758 5240a90 90 0 0 0-180 0 90 90 0 0 0 180 0z"/>
<path class="Rot Rand2Hell" d="m5158 5398a90 90 0 0 0-180 0 90 90 0 0 0 180 0z"/>
<path class="Rand3" d="m7425 3870h-7650"/>
</g>
<path class="Rand6" d="m360 4140a3240 3240 0 0 0 6480 0v-3870h-6480v3870z"/>
</g>
</svg>

<?xml version="1.0" encoding="iso-8859-1"?>
<!DOCTYPE svg PUBLIC "-//W3C//DTD SVG 1.1//EN" "http://www.w3.org/Graphics/SVG/1.1/DTD/svg11.dtd">
<!-- Auto-generated by fig2svg tool
     Date: Wed Nov  1 18:22:35 2006 -->
<svg xmlns="http://www.w3.org/2000/svg"
     width="438" height="480" viewBox="21 15 438 480">
<metadata>
<rdf:RDF xmlns:rdf="http://www.w3.org/1999/02/22-rdf-syntax-ns#"
         xmlns:dc="http://purl.org/dc/elements/1.1/">
<rdf:Description
 dc:title="Wappen Sils im Engadin/Segl (CH-GR)"
 dc:date="2006-11-01"
 dc:format="image/svg+xml"
 dc:language="de">
<dc:creator rdf:resource="http://de.wikipedia.org/wiki/Benutzer:Bernina" />
</rdf:Description>
</rdf:RDF>
</metadata>
<title>
Wappen Sils im Engadin/Segl (CH-GR)
</title>
<defs>
<clipPath id="clippath">
<path d="M360,4140 A3240,3240 0.0 0 0 6840,4140 L6840,270 L360,270 L360,4140 Z" />
</clipPath>
<style type="text/css">
  <![CDATA[
  .Rand2 { stroke: #202020; stroke-width:30; }
  .Rand3 { stroke: #202020; stroke-width:45; }
  .Rand6 { stroke: #202020; stroke-width:90; }
  .Rand2Hell { stroke: #ffffff; stroke-width:30; }
  .Rand4Hell { stroke: #ffffff; stroke-width:60; }
  .Schwarz { fill: #000000; }
  .Blau { fill: #0000ff; }
  .Rot { fill: #ff0000; }
  .Gold { fill: #ffef00; }
  .Silber { fill: #ffffff; }
  ]]>
</style>
</defs>
<g stroke="none" stroke-miterlimit="10" stroke-width="10"
   stroke-linecap="butt" stroke-linejoin="miter"
   fill="none" fill-rule="evenodd" transform="scale(0.066667)">
<g clip-path="url(#clippath)">
<path id="feldo-1" class="Blau"
      d="M-225,-225 L-225,3870 L7425,3870 L7425,-225 L-225,-225 Z" />
<path id="feldu-1" class="Gold"
      d="M-225,3870 L-225,7425 L7425,7425 L7425,3870 L-225,3870 Z" />
<path id="sonne-1" class="Gold Rand2"
      d="M3460,1082 L3158,418 L3228,1144 L3208,1152 L2744,590 L3002,1272
         L2984,1286 L2390,860 L2816,1454 L2802,1472 L2120,1216 L2682,1678
         L2674,1698 L1948,1628 L2612,1930 L2610,1950 L1890,2070 L2610,2190
         L2612,2210 L1948,2512 L2674,2442 L2682,2462 L2120,2926 L2802,2668
         L2816,2686 L2390,3280 L2984,2854 L3002,2868 L2746,3550 L3208,2988
         L3228,2996 L3158,3722 L3460,3058 L3480,3060 L3600,3780 L3720,3060
         L3740,3058 L4042,3722 L3972,2996 L3992,2988 L4456,3550 L4198,2868
         L4216,2854 L4810,3280 L4384,2686 L4398,2668 L5080,2924 L4518,2462
         L4526,2442 L5252,2512 L4588,2210 L4590,2190 L5310,2070 L4590,1950
         L4588,1930 L5252,1628 L4526,1698 L4518,1678 L5080,1214 L4398,1472
         L4384,1454 L4810,860 L4216,1286 L4198,1272 L4456,590 L3992,1152
         L3972,1144 L4042,418 L3740,1082 L3720,1080 L3600,360 L3480,1080
         L3460,1082 Z" />
<path id="sonne-linie-1" class="Rand4Hell"
      d="M4470,2070 A870,870 0.0 0 0 2730,2070 A870,870 0.0 0 0 4470,2070 Z" />
<path id="fisch1-1" class="Blau Rand2"
      d="M2060,5824 C2213.33,5892.67 2366.67,5961.33 2518.33,6040.67
         C2670,6120 2820,6210 2970,6300 C2970,6240 2970,6180 2985,6120
         C3000,6060 3030,6000 3060,5940" />
<path id="fisch1-2" class="Blau Rand2"
      d="M3854,5908 C3979.33,5948.67 4104.67,5989.33 4227.33,6024.67
         C4350,6060 4470,6090 4590,6120
         C4580.67,6054 4571.33,5988 4571.33,5928 C4571.33,5868 4580.67,5814 4590,5760" />
<path id="fisch1-3" class="Blau Rand2"
      d="M3870,4950 C4020,4890 4170,4830 4305,4785
         C4440,4740 4560,4710 4680,4680 C4650,4740 4620,4800 4605,4860
         C4590,4920 4590,4980 4590,5040" />
<path id="fisch1-4" class="Blau Rand2"
      d="M2250,4950 C2340,4890 2430,4830 2565,4755
         C2700,4680 2880,4590 3060,4500
         C3048,4586.67 3036,4673.33 3036,4748.33 C3036,4823.33 3048,4886.67 3060,4950" />
<path id="fisch1-5" class="Blau Rand2"
      d="M5130,5670 C5340,5700 5550,5730 5700,5760
         C5850,5790 5940,5820 6030,5850 C6000,5730 5970,5610 5955,5520
         C5940,5430 5940,5370 5970,5265 C6000,5160 6060,5010 6120,4860
         C5940,4920 5760,4980 5595,5025 C5430,5070 5280,5100 5130,5130" />
<path id="fisch2-1" class="Blau Rand2"
      d="M1080,5400 C1050,5430 1020,5460 1155,5535
         C1290,5610 1590,5730 1980,5820 C2370,5910 2850,5970 3315,5955
         C3780,5940 4230,5850 4605,5775 C4980,5700 5280,5640 5430,5550
         C5580,5460 5580,5340 5430,5250 C5280,5160 4980,5100 4605,5025
         C4230,4950 3780,4860 3285,4845 C2790,4830 2250,4890 1875,4980
         C1500,5070 1290,5190 1185,5265 C1080,5340 1080,5370 1080,5400 Z" />
<path id="fisch-linie-1" class="Rand2"
      d="M1080,5400 L1440,5490 L1620,5490" />
<path id="fisch-linie-2" class="Rand2"
      d="M1980,5760 C2040,5700 2100,5640 2130,5550
         C2160,5460 2160,5340 2130,5235 C2100,5130 2040,5040 1980,4950" />
<path id="auge-1" class="Silber Rand2"
      d="M1918,5254 A120,120 0.0 0 0 1678,5254 A120,120 0.0 0 0 1918,5254 Z" />
<path id="augei-1" class="Schwarz"
      d="M1836,5248 A60,60 0.0 0 0 1716,5248 A60,60 0.0 0 0 1836,5248 Z" />
<path id="punkt-1" class="Rot Rand2Hell"
      d="M3148,5458 A90,90 0.0 0 0 2968,5458 A90,90 0.0 0 0 3148,5458 Z" />
<path id="punkt-2" class="Rot Rand2Hell"
      d="M3914,5472 A90,90 0.0 0 0 3734,5472 A90,90 0.0 0 0 3914,5472 Z" />
<path id="punkt-3" class="Rot Rand2Hell"
      d="M4694,5428 A90,90 0.0 0 0 4514,5428 A90,90 0.0 0 0 4694,5428 Z" />
<path id="punkt-4" class="Rot Rand2Hell"
      d="M4304,5300 A90,90 0.0 0 0 4124,5300 A90,90 0.0 0 0 4304,5300 Z" />
<path id="punkt-5" class="Rot Rand2Hell"
      d="M3524,5248 A90,90 0.0 0 0 3344,5248 A90,90 0.0 0 0 3524,5248 Z" />
<path id="punkt-6" class="Rot Rand2Hell"
      d="M2758,5240 A90,90 0.0 0 0 2578,5240 A90,90 0.0 0 0 2758,5240 Z" />
<path id="punkt-7" class="Rot Rand2Hell"
      d="M5158,5398 A90,90 0.0 0 0 4978,5398 A90,90 0.0 0 0 5158,5398 Z" />
<path id="linie-1" class="Rand3" d="M7425,3870 L-225,3870" />
</g>
<path id="clip-boundary" class="Rand6"
      d="M360,4140 A3240,3240 0.0 0 0 6840,4140 L6840,270 L360,270 L360,4140 Z" />
</g>
</svg>
